Newaita/actions/24/mail-forwarded.svg

<?xml version="1.0" encoding="UTF-8"?>
<svg xmlns="http://www.w3.org/2000/svg" xmlns:xlink="http://www.w3.org/1999/xlink" width="24pt" height="24pt" viewBox="0 0 24 24" version="1.1">
<g id="surface1">
<path style=" stroke:none;fill-rule:nonzero;fill:rgb(25.882354%,25.882354%,25.882354%);fill-opacity:1;" d="M 2.976562 3.164062 C 1.878906 3.164062 0.992188 4.050781 0.992188 5.148438 L 0.992188 13.085938 L 2.480469 13.085938 L 2.480469 5.800781 L 11.335938 13.726562 C 11.660156 14.015625 12.152344 14.015625 12.480469 13.726562 L 21.335938 5.800781 L 21.335938 13.085938 L 22.824219 13.085938 L 22.824219 5.148438 C 22.824219 4.050781 21.9375 3.164062 20.839844 3.164062 Z M 3.765625 4.652344 L 20.050781 4.652344 L 11.90625 11.9375 Z M 9.425781 20.03125 L 9.425781 21.523438 L 14.386719 21.523438 L 14.386719 20.03125 Z M 9.425781 20.03125 "/>
<path style=" stroke:none;fill-rule:nonzero;fill:rgb(14.901961%,77.64706%,85.490197%);fill-opacity:1;" d="M 16.28125 14.121094 C 16.089844 14.113281 15.902344 14.1875 15.765625 14.316406 C 15.625 14.449219 15.546875 14.632812 15.546875 14.824219 L 15.546875 20.777344 C 15.546875 21.03125 15.683594 21.265625 15.90625 21.390625 C 16.125 21.515625 16.394531 21.511719 16.613281 21.382812 L 21.574219 18.40625 C 21.785156 18.277344 21.914062 18.050781 21.914062 17.800781 C 21.914062 17.554688 21.785156 17.328125 21.574219 17.199219 L 16.613281 14.222656 C 16.511719 14.160156 16.398438 14.128906 16.28125 14.121094 Z M 16.953125 16.066406 L 19.84375 17.800781 L 16.953125 19.535156 Z M 16.953125 16.066406 "/>
<path style=" stroke:none;fill-rule:nonzero;fill:rgb(14.901961%,77.64706%,85.490197%);fill-opacity:1;" d="M 2.882812 14.121094 C 2.691406 14.113281 2.507812 14.1875 2.367188 14.316406 C 2.230469 14.449219 2.152344 14.632812 2.152344 14.824219 L 2.152344 20.777344 C 2.152344 21.03125 2.289062 21.265625 2.507812 21.390625 C 2.730469 21.515625 3 21.511719 3.21875 21.382812 L 8.179688 18.40625 C 8.390625 18.277344 8.519531 18.050781 8.519531 17.800781 C 8.519531 17.554688 8.390625 17.328125 8.179688 17.199219 L 3.21875 14.222656 C 3.117188 14.160156 3 14.128906 2.882812 14.121094 Z M 3.558594 16.066406 L 6.449219 17.800781 L 3.558594 19.535156 Z M 3.558594 16.066406 "/>
</g>
</svg>

<svg xmlns="http://www.w3.org/2000/svg" width="32" height="32" viewBox="0 0 24 24"><path d="M2.977 3.164A1.982 1.982 0 0 0 .992 5.148v7.938H2.48V5.8l8.856 7.926c.324.289.816.289 1.144 0L21.336 5.8v7.285h1.488V5.148a1.982 1.982 0 0 0-1.984-1.984zm.789 1.488H20.05l-8.145 7.285zm5.66 15.38v1.491h4.96v-1.492zm0 0" fill="#424242"/><path d="M16.281 14.121a.716.716 0 0 0-.515.195.698.698 0 0 0-.22.508v5.953c0 .254.138.489.36.614a.704.704 0 0 0 .707-.008l4.961-2.977a.706.706 0 0 0 0-1.207l-4.96-2.976a.717.717 0 0 0-.333-.102zm.672 1.945l2.89 1.735-2.89 1.734zm0 0M2.883 14.121a.722.722 0 0 0-.516.195.71.71 0 0 0-.215.508v5.953c0 .254.137.489.356.614a.711.711 0 0 0 .71-.008l4.962-2.977a.706.706 0 0 0 0-1.207l-4.961-2.976a.733.733 0 0 0-.336-.102zm.676 1.945l2.89 1.735-2.89 1.734zm0 0" fill="#26c6da"/></svg>
